X:157
T:Allexander
C:No 156 William Clarke of Feltwell
M:6/8
L:1/8
K:G
d|BcBd2d|cBAB2G|GFGA2G|BcBA2A|BcBd2d|cBAB2G|GFGA2G|FEFG2::A|ABA AFd|Afd Aaf|ge^c dfa|agfe2A|ABA AFd|Afd Aaf|ge^c dfa|ge^c|d2::B|cdc aga|BcB gfg|cdc aga|Bgf gdB|cdc afa|BcB gfg|cdc aga|dgfg2:|

